www/assets/icons/add_chart.svg

<svg width="24" height="24" viewBox="0 0 24 24" xmlns="http://www.w3.org/2000/svg" fill='currentColor'><path d="M5.5 9.99H7.5V16.99H5.5V9.99ZM13.5 12.99H15.5V16.99H13.5V12.99ZM9.5 6.99H11.5V16.99H9.5V6.99ZM19.5 7V4H17.5V7H14.5V9H17.5V12H19.5V9H22.5V7H19.5ZM17.5 19H3.5V5H15.5V3H3.5C2.4 3 1.5 3.9 1.5 5V19C1.5 20.1 2.4 21 3.5 21H17.5C18.6 21 19.5 20.1 19.5 19V14H17.5V19Z"/></svg>

<svg xmlns="http://www.w3.org/2000/svg" width="24" height="24" viewBox="0 0 24 24" fill='currentColor'><path d="M5.5 9.99h2v7h-2zm8 3h2v4h-2zm-4-6h2v10h-2zm10 .01V4h-2v3h-3v2h3v3h2V9h3V7zm-2 12h-14V5h12V3h-12c-1.1 0-2 .9-2 2v14c0 1.1.9 2 2 2h14c1.1 0 2-.9 2-2v-5h-2z"/></svg>
